brandFactory_export/1.Light/Premio primero ganador _1Light.svg

<?xml version="1.0" encoding="UTF-8"?>
<svg width="24px" height="24px" viewBox="0 0 24 24" version="1.1" xmlns="http://www.w3.org/2000/svg" xmlns:xlink="http://www.w3.org/1999/xlink">
    <title>1.Light/Premio primero ganador _1Light</title>
    <g id="Symbols" stroke="none" stroke-width="1" fill="none" fill-rule="evenodd">
        <g id="1.Light/Premio-primero-ganador-_1Light" fill="#5CB615" fill-rule="nonzero">
            <path d="M19.0957983,19.492437 L21.7680672,20.4605042 L18.5042017,13.6638655 C17.3243697,14.8 15.6638655,15.4252101 13.5932773,15.5697479 L16.9008403,22.6453782 L17.8319328,20.0638655 C18.0268908,19.5630252 18.5882353,19.3109244 19.0957983,19.492437 L19.0957983,19.492437 Z M7.86218487,22.702521 L11.1327731,15.512605 C9.08907563,15.2773109 7.48235294,14.5378151 6.38991597,13.2537815 L3.01848739,20.4773109 L5.60336134,19.4957983 C6.10756303,19.3142857 6.66554622,19.5663866 6.86386555,20.0638655 L7.86218487,22.702521 L7.86218487,22.702521 Z M12.6386555,0.991596639 C7.98991597,0.991596639 5.72773109,3.22016807 5.72773109,7.80168067 C5.72773109,12.3831933 7.98655462,14.6117647 12.6386555,14.6117647 C17.2941176,14.6117647 19.5529412,12.3865546 19.5529412,7.80504202 C19.5529412,3.22016807 17.2907563,0.991596639 12.6386555,0.991596639 Z M22.594958,20.0605042 C22.7529412,20.3966387 22.702521,20.7865546 22.4638655,21.0756303 C22.2285714,21.3647059 21.8487395,21.4957983 21.4857143,21.4117647 L18.7462185,20.4235294 L17.7747899,23.0487395 C17.5764706,23.4252101 17.2470588,23.6201681 16.8806723,23.6201681 L16.8537815,23.6201681 C16.4806723,23.6134454 16.1445378,23.394958 15.9865546,23.0588235 L12.497479,15.5966387 C12.3966387,15.5966387 12.2991597,15.589916 12.2016807,15.5865546 L8.7092437,23.0588235 C8.5512605,23.394958 8.21512605,23.6134454 7.84201681,23.6235715 L7.81512605,23.6235715 C7.45210084,23.6268908 7.11932773,23.4285714 6.94789916,23.1092437 L5.92268908,20.4134454 L3.27731092,21.394958 C2.85042017,21.492437 2.47394958,21.3680672 2.23529412,21.0789916 C2,20.7932773 1.94957983,20.4 2.10420168,20.0638655 L5.73445378,12.2991597 C5.07563025,11.1260504 4.72268908,9.64033613 4.72268908,7.80840336 C4.72268908,2.48739496 7.63697479,0 12.6386555,0 C17.6403361,0 20.5579832,2.4907563 20.5579832,7.80504202 C20.5579832,9.92605042 20.0840336,11.589916 19.210084,12.8268908 L22.594958,20.0605042 Z M9.80840336,7.11260504 C9.77478992,7.20672269 9.79831933,7.31092437 9.86890756,7.37815126 L10.897479,8.40672269 C11.0151261,8.53109244 11.0689076,8.70252101 11.0420168,8.87394958 L10.8,10.3159664 C10.7831933,10.4168067 10.8201681,10.5142857 10.9008403,10.5680672 C10.9680672,10.6151261 11.0521008,10.6218487 11.1260504,10.5815126 L12.3932773,9.89579832 C12.5546218,9.80840336 12.7495798,9.81512605 12.907563,9.90588235 L14.1613445,10.5815126 C14.2285714,10.6218487 14.3159664,10.6151261 14.3865546,10.5680672 C14.4672269,10.5109244 14.5042017,10.4134454 14.4840336,10.3193277 L14.2420168,8.86722689 C14.2184874,8.69915966 14.2722689,8.52773109 14.3932773,8.40672269 L15.4184874,7.38151261 C15.4890756,7.31092437 15.512605,7.20672269 15.4789916,7.11596639 C15.4521008,7.03193277 15.3815126,6.97142857 15.297479,6.95798319 L13.8756303,6.74621849 C13.697479,6.71596639 13.5495798,6.60168067 13.4756303,6.44033613 L12.8470588,5.13613445 C12.789916,5.02521008 12.6554622,4.98151261 12.5445378,5.03529412 C12.5008403,5.05882353 12.4672269,5.09243697 12.4436975,5.13613445 L11.8084034,6.45714286 C11.7310924,6.60840336 11.589916,6.71596639 11.4218487,6.74621849 L9.99327731,6.96134454 C9.90252101,6.96806723 9.83193277,7.02857143 9.80840336,7.11260504 L9.80840336,7.11260504 Z M10.010084,8.93445378 L9.14957983,8.07394958 C8.81680672,7.74117647 8.69915966,7.24705882 8.85378151,6.8 C9.00504202,6.35966387 9.38151261,6.04369748 9.83865546,5.97310924 L11.005042,5.79831933 L11.5294118,4.70252101 C11.7378151,4.27226891 12.1647059,4.00336134 12.6386555,4.00336134 C13.1159664,4.00336134 13.5428571,4.27226891 13.7478992,4.70252101 L14.2756303,5.79831933 L15.4420168,5.97310924 C15.8991597,6.04033613 16.2789916,6.35630252 16.4268908,6.8 C16.5781513,7.25042017 16.4672269,7.73781513 16.1310924,8.07394958 L15.2705882,8.93781513 L15.4756303,10.1579832 C15.5563025,10.6319328 15.3613445,11.102521 14.9647059,11.3781513 C14.5848739,11.6403361 14.087395,11.6705882 13.6806723,11.4521008 L12.6386555,10.8907563 L11.6067227,11.4521008 C11.1966387,11.6705882 10.6991597,11.6436975 10.3193277,11.3781513 C9.92605042,11.1058824 9.72773109,10.6285714 9.80840336,10.1579832 C9.80504202,10.1546218 10.010084,8.93445378 10.010084,8.93445378 L10.010084,8.93445378 Z" id="Premio-primero-ganador-_1Light"></path>
        </g>
    </g>
</svg>

<svg width="24" height="24" viewBox="0 0 24 24" xmlns="http://www.w3.org/2000/svg"><path d="M19.096 19.492l2.672.969-3.264-6.797c-1.18 1.136-2.84 1.761-4.91 1.906l3.307 7.075.93-2.581a.995.995 0 011.265-.572zm-11.234 3.21l3.27-7.19c-2.043-.235-3.65-.974-4.742-2.258l-3.372 7.223 2.585-.981a.995.995 0 011.26.568l1 2.639zM12.64.993c-4.65 0-6.911 2.228-6.911 6.81 0 4.581 2.259 6.81 6.91 6.81 4.656 0 6.915-2.225 6.915-6.807 0-4.585-2.262-6.813-6.914-6.813zm9.956 19.069a.95.95 0 01-.131 1.015.978.978 0 01-.978.336l-2.74-.988-.971 2.625c-.199.376-.528.571-.894.571h-.027a.978.978 0 01-.867-.561l-3.49-7.462c-.1 0-.198-.007-.295-.01l-3.493 7.472a.987.987 0 01-.867.565h-.027a.973.973 0 01-.867-.515l-1.025-2.696-2.646.982c-.427.097-.803-.027-1.042-.316a.962.962 0 01-.13-1.015l3.63-7.765c-.66-1.173-1.012-2.659-1.012-4.49C4.723 2.486 7.637 0 12.639 0c5.001 0 7.919 2.49 7.919 7.805 0 2.121-.474 3.785-1.348 5.022l3.385 7.234zM9.808 7.113a.25.25 0 00.06.265l1.03 1.029a.553.553 0 01.144.467l-.242 1.442c-.017.1.02.198.1.252a.21.21 0 00.226.014l1.267-.686a.528.528 0 01.515.01l1.253.676c.068.04.155.033.226-.014a.242.242 0 00.097-.249l-.242-1.452a.544.544 0 01.151-.46l1.025-1.025a.253.253 0 00.061-.266.23.23 0 00-.182-.158l-1.421-.212a.536.536 0 01-.4-.306l-.629-1.304a.228.228 0 00-.302-.1.243.243 0 00-.101.1l-.636 1.321a.542.542 0 01-.386.29l-1.429.214a.205.205 0 00-.185.152zm.202 1.821l-.86-.86a1.239 1.239 0 01.69-2.1l1.165-.176.524-1.095a1.228 1.228 0 012.219 0l.528 1.095 1.166.175c.457.067.837.383.985.827.151.45.04.938-.296 1.274l-.86.864.205 1.22c.08.474-.115.945-.511 1.22-.38.262-.878.293-1.284.074l-1.042-.561-1.032.561a1.234 1.234 0 01-1.799-1.294c-.003-.003.202-1.224.202-1.224z" fill="#5CB615" fill-rule="nonzero"/></svg>
